public/assets/images/service/06.svg

<svg width="28" height="33" viewBox="0 0 28 33" fill="none" xmlns="http://www.w3.org/2000/svg">
<path d="M27.5585 3.09594C27.1857 2.57252 26.6295 2.22533 25.9922 2.11822C25.355 2.01105 24.7156 2.15742 24.1923 2.53023L13.0632 10.4571L11.8172 5.76366L11.7532 5.54366C11.3294 4.08531 10.849 2.43239 9.05372 2.38064L6.61816 2.31042L6.83984 5.25929L7.80263 5.18688L7.66128 3.30636L9.02585 3.34568C10.0674 3.37568 10.3739 4.25737 10.826 5.81303L10.8854 6.01701L12.223 11.0555L11.3157 11.7018L11.8758 12.4882L24.7522 3.31672C25.0656 3.0935 25.4491 3.00602 25.8321 3.07039C26.215 3.13476 26.5488 3.34272 26.7721 3.65612C26.9953 3.96952 27.0828 4.35295 27.0184 4.73593C26.954 5.11891 26.7461 5.45271 26.4327 5.67593L18.6083 11.249L19.1684 12.0354L20.6992 10.9451C21.0112 10.7258 21.3917 10.6404 21.7714 10.7042C22.1544 10.7685 22.4882 10.9765 22.7114 11.2899C23.1747 11.9403 23.0225 12.8465 22.372 13.3097L20.1026 14.9261L20.6627 15.7126L22.1033 14.6865C22.4167 14.4633 22.8001 14.3759 23.1831 14.4402C23.5661 14.5045 23.8999 14.7126 24.1231 15.0259C24.5864 15.6763 24.4341 16.5824 23.7837 17.0457L21.9499 18.3518L22.51 19.1383L23.5574 18.3922C23.8707 18.1691 24.2543 18.0817 24.6372 18.1459C25.0202 18.2103 25.354 18.4183 25.5772 18.7316C26.0405 19.3821 25.8883 20.2882 25.2379 20.7515L22.6821 22.5719L23.2422 23.3583L25.798 21.5379C26.8821 20.7657 27.1358 19.2556 26.3637 18.1715C26.019 17.6877 25.5177 17.3544 24.9405 17.2222C25.4899 16.4111 25.5104 15.3094 24.9096 14.4658C24.5685 13.987 24.0737 13.6562 23.5039 13.5212C24.0771 12.707 24.1075 11.5857 23.4979 10.7298C23.1913 10.2993 22.7606 9.98802 22.2628 9.83148L26.9929 6.46236C27.5163 6.08955 27.8635 5.53323 27.9706 4.89601C28.0777 4.25859 27.9314 3.61937 27.5585 3.09594Z" fill="#20282D"/>
<path d="M17.8367 26.023L12.392 27.5307L10.4786 28.884L4.32047 20.1768L6.27894 18.7895L8.23432 10.9245L7.87535 6.14941L6.91256 6.22176L7.25988 10.8421L5.42834 18.2087L0.611306 21.6211C0.296298 21.8438 0.08685 22.1769 0.0213253 22.5589C-0.0441995 22.9409 0.0424375 23.3248 0.265209 23.6397L6.4219 32.3445C6.64461 32.6594 6.9777 32.8689 7.35971 32.9344C7.44294 32.9487 7.52617 32.9558 7.60888 32.9557C7.90567 32.9557 8.19422 32.8648 8.44055 32.6906L11.5936 30.4605L11.0361 29.6722L12.8119 28.4162L18.2583 26.908L20.8833 25.0382L20.3233 24.252L17.8367 26.023ZM7.88308 31.9024C7.77867 31.9762 7.65078 32.0049 7.52295 31.9829C7.39512 31.961 7.28408 31.8914 7.21026 31.787L1.05357 23.0823C0.979738 22.9779 0.951159 22.85 0.973044 22.7222C0.994928 22.5943 1.06451 22.4833 1.16923 22.4092L3.53269 20.735L10.2479 30.2298L7.88308 31.9024Z" fill="#20282D"/>
<path d="M21.1179 23.7061L21.9048 23.1461L22.4648 23.9329L21.6779 24.4929L21.1179 23.7061Z" fill="#20282D"/>
<path d="M12.5605 0.671875L13.4478 0.291468L14.8964 3.67017L14.0091 4.05058L12.5605 0.671875Z" fill="#20282D"/>
<path d="M15.9033 0H16.8688V3.37925H15.9033V0Z" fill="#20282D"/>
<path d="M17.8762 3.6748L19.3248 0.296103L20.2121 0.67651L18.7635 4.05521L17.8762 3.6748Z" fill="#20282D"/>
<path d="M16.2559 16.3301L17.0437 15.772L17.6018 16.5599L16.8139 17.1179L16.2559 16.3301Z" fill="#20282D"/>
<path d="M17.355 17.9248L18.1428 17.3677L18.6999 18.1556L17.9121 18.7127L17.355 17.9248Z" fill="#20282D"/>
</svg>

<svg xmlns="http://www.w3.org/2000/svg" width="28" height="33" fill="none" viewBox="0 0 28 33"><path fill="#20282d" d="M27.559 3.096a2.4 2.4 0 0 0-1.567-.978 2.4 2.4 0 0 0-1.8.412l-11.129 7.927-1.246-4.693-.064-.22c-.424-1.459-.904-3.112-2.7-3.163l-2.435-.07.222 2.948.963-.072-.142-1.88 1.365.039c1.041.03 1.348.911 1.8 2.467l.06.204 1.337 5.039-.907.646.56.786 12.876-9.171a1.44 1.44 0 0 1 1.08-.247 1.44 1.44 0 0 1 1.186 1.666 1.44 1.44 0 0 1-.585.94l-7.825 5.573.56.786 1.531-1.09c.312-.22.693-.305 1.072-.24.383.063.717.271.94.585a1.45 1.45 0 0 1-.339 2.02l-2.27 1.616.56.787 1.441-1.026a1.44 1.44 0 0 1 1.08-.247c.383.065.717.273.94.586a1.45 1.45 0 0 1-.34 2.02l-1.833 1.306.56.786 1.047-.746c.314-.223.697-.31 1.08-.246s.717.272.94.586a1.45 1.45 0 0 1-.34 2.02l-2.555 1.82.56.786 2.556-1.82a2.417 2.417 0 0 0 .566-3.366 2.4 2.4 0 0 0-1.424-.95c.55-.81.57-1.913-.03-2.756a2.4 2.4 0 0 0-1.406-.945 2.42 2.42 0 0 0-.006-2.791 2.4 2.4 0 0 0-1.235-.899l4.73-3.369a2.4 2.4 0 0 0 .978-1.566 2.4 2.4 0 0 0-.413-1.8"/><path fill="#20282d" d="m17.837 26.023-5.445 1.508-1.913 1.353-6.159-8.707 1.96-1.387 1.955-7.865-.359-4.776-.962.073.347 4.62-1.832 7.367L.611 21.62a1.44 1.44 0 0 0-.59.938c-.065.382.021.766.244 1.08l6.157 8.705a1.44 1.44 0 0 0 1.187.612c.297 0 .585-.091.832-.265l3.153-2.23-.558-.789 1.776-1.256 5.446-1.508 2.625-1.87-.56-.786zm-9.954 5.88a.48.48 0 0 1-.36.08.48.48 0 0 1-.313-.196l-6.156-8.705a.48.48 0 0 1-.081-.36.48.48 0 0 1 .196-.313l2.364-1.674 6.715 9.495zm13.235-8.197.787-.56.56.787-.787.56zM12.56.672l.888-.38 1.448 3.378-.887.38zM15.903 0h.966v3.38h-.966zm1.973 3.675L19.325.296l.887.38-1.448 3.38zm-1.62 12.655.788-.558.558.788-.788.558zm1.099 1.595.788-.557.557.788-.788.557z"/></svg>
